X: 33724
T: Rathkeale Hunt
R: reel
M: 4/4
K: Dmajor
AG|F2AF DFAF|G2BG dGBG|F2AF DFA=c|BGF>GE2D2|
F2AF DFAF|G2(3BAG dGBG|FGAF DFAc|BGF>GE2D2|
Acd>ef2fa|gefd edBd|Acd>e fefg|afdfe2d2|
Acd>ef2fa|gefd edBd|Acd>e fdfg|afdfe2d2|
A2Ac BAGF|GABc dBAG|FAAc BFGB|AFDFE2D2|
FAAc BAGF|GABc dBAG|FGAc BFGA|BGFGE2D2||

